X: 10482
M: 2/4
L: 1/16
K: G
|: e2 |\
g2ga b2g2 | f2a2 f2d2 | e2ef g2fe | d2g2d2B2 |\
cBcd e2dc | B2d2g2f2 | e2g2 fgaf | g6 :|


